X:1
T:Title
%%score { ( 1 3 ) | ( 2 4 ) }
L:1/8
M:6/8
K:F
V:1 treble nm="Grand Piano"
V:3 treble 
V:2 bass 
V:4 bass 
V:1
 z3 z2[Q:1/4=99] C | F2 A c2 d | d2 c c2 [DFB] | [FA]>[GB][FA] [EG]2 [EG] |[M:5/8] F-F- F3 | %5
[M:1/8] C |[M:3/4] F2 A c2 d | d2 c c2 A | G>A G =B2 G |[M:5/8] [Ec]-[Ec]- [Ec]3 |[M:1/8] [Ec] | %11
[M:3/4] [Ed]2 [Ed] [EG]2 [EG] | [Fc]2 [Fc] F2 F | B2 B E2 E |[M:5/8] [EA]2 [EA] F2 |[M:1/8] F | %16
[M:3/4] [Fd]2 [Fd] [Fd]2 G |[M:7/8] c2 c c3 [DFB] |[M:3/4] [FA]>[GB] [FA] [EG]2 [EG] | %19
[M:5/8] F-F- F3 |[M:1/8] F |[M:3/4] A2 B =B2 c | [Be]6 | [Ac]2 [GB] [EG]2 [E_A] | [FA]6 | %25
 [Fd]2 [Fd] [Fd]2 G |[M:7/8] c2 c c3 [DFB] |[M:3/4] [FA]>B [CFA] [B,EG]2 [B,EG] | %28
[M:13/8] [A,CF]-[A,CF]- [A,CF]3 z z z z z z z2 |] %29
V:2
 z3 z2 [F,A,] | [F,A,C]2 [F,CF] [F,A,F]2 [F,B,F] | [F,B,F]2 [F,A,F] [F,A,F]2 B,, | %3
 [C,C]2 [C,C] [C,B,]2 [C,B,] |[M:5/8] [F,A,C]-[F,A,C]- [F,A,C]3 |[M:1/8] [F,A,] | %6
[M:3/4] [F,A,C]2[K:treble] [F,CF] [F,A,F]2 [F,B,F] | [F,B,F]2 [F,A,F] [F,A,F]2 [F,CF] | %8
 [G,=B,F]2 [G,B,F] [G,DF]2 [G,B,F] |[M:5/8][K:bass] [C,C]-[C,C]- [C,C]3 |[M:1/8] [C,C] | %11
[M:3/4] [D,B,]2 [C,B,] [C,B,]2 [C,B,] | [C,A,]2 [C,A,] [C,A,C]2 [C,_A,C] | %13
 [C,G,C]2 [C,G,C] [C,G,C]2 [C,B,C] |[M:5/8] [^C,A,]2 [C,A,] [D,A,D]2 |[M:1/8] [C,A,] | %16
[M:3/4] [B,,B,]2 [B,,B,] [B,,B,]2[K:treble] [B,DF] |[M:7/8] [A,CF]2[K:bass] [G,B,E] [F,A,F]3 B,, | %18
[M:3/4] [C,C]2 [C,C] [C,B,]2 [C,B,] |[M:5/8] [F,A,C]-[F,A,C]- [F,A,C]3 |[M:1/8] [F,A,C] | %21
[M:3/4][K:treble] [F,CF]2 [G,CE] [_A,DF]2 [=A,CF] | [G,C]2[K:bass] G, G,2 [G,C] | [C,C]3 [C,C]3 | %24
 [F,C]2 F, F,2 [F,A,] | [B,,B,]2 [B,,B,] [B,,B,]2[K:treble] [B,DF] | %26
[M:7/8] [A,CF]2[K:bass] [G,B,E] [F,A,F]3 B,, |[M:3/4] [C,C]2 z2 z2 | %28
[M:13/8] F,-F,- F,3 z z z z z z z2 |] %29
V:3
 x6 | x6 | x6 | x6 |[M:5/8] x5 |[M:1/8] x |[M:3/4] x6 | x6 | x6 |[M:5/8] x5 |[M:1/8] x | %11
[M:3/4] x6 | x6 | x6 |[M:5/8] x5 |[M:1/8] x |[M:3/4] x6 |[M:7/8] x7 |[M:3/4] x6 |[M:5/8] x5 | %20
[M:1/8] x |[M:3/4] x6 | z2 C C2 [Bd] | x6 | z2 C C2 F | x6 |[M:7/8] x7 |[M:3/4] x6 |[M:13/8] x13 |] %29
V:4
 x6 | x6 | x6 | x6 |[M:5/8] x5 |[M:1/8] x |[M:3/4] x2[K:treble] x4 | x6 | x6 |[M:5/8][K:bass] x5 | %10
[M:1/8] x |[M:3/4] x6 | x6 | x6 |[M:5/8] x5 |[M:1/8] x |[M:3/4] x5[K:treble] x | %17
[M:7/8] x2[K:bass] x5 |[M:3/4] x6 |[M:5/8] x5 |[M:1/8] x |[M:3/4][K:treble] x6 | x2[K:bass] x4 | %23
 x6 | x6 | x5[K:treble] x |[M:7/8] x2[K:bass] x5 |[M:3/4] z z/ G/ C, C,2 C, |[M:13/8] x13 |] %29

